source/img/svg/icon-design.svg

<svg width="48" height="48" viewBox="0 0 48 48" fill="none" xmlns="http://www.w3.org/2000/svg">
<path d="M29.0311 30.2833C28.3148 29.4424 27.0525 29.3415 26.2117 30.0578C25.757 30.4452 25.5187 30.9922 25.509 31.5459L25.9862 32.8772C26.7025 33.718 27.9648 33.819 28.8057 33.1027C29.6465 32.3864 29.7474 31.1241 29.0311 30.2833Z" fill="#C43B55"/>
<path d="M25.6229 19.2654C26.2787 18.3766 26.0899 17.1245 25.2011 16.4686C24.7204 16.114 24.1335 16.0063 23.5921 16.1228L22.4043 16.8905C21.7485 17.7792 21.9373 19.0314 22.8261 19.6872C23.7149 20.3431 24.9671 20.1542 25.6229 19.2654Z" fill="#C43B55"/>
<path d="M20.6053 23.7855C21.2612 22.8967 21.0723 21.6445 20.1835 20.9887C19.7029 20.634 19.1159 20.5263 18.5745 20.6429L17.3867 21.4105C16.7309 22.2993 16.9197 23.5514 17.8085 24.2073C18.6973 24.8631 19.9495 24.6742 20.6053 23.7855Z" fill="#C43B55"/>
<path d="M38 24.4998C38 31.1272 32.6274 36.9998 26 36.9998C24.8333 36.9998 23 36.4998 22.5 35.9998C21.7345 35.2343 24.6777 29.9493 17 27.9998C16 27.6664 14 26.4998 14 24.4998C14 17.8723 19.3726 12.4998 26 12.4998C30.3375 12.4998 34.1375 14.801 36.2456 18.2492" stroke="black" stroke-linecap="round" stroke-linejoin="round"/>
<path d="M16.5 16.0001C16.5 8.00016 13.5 7.99978 13.5 16.0001V27.9998H16.5V16.0001Z" fill="#C43B55"/>
<path d="M13.5 16.0001C13.5 7.99976 16.5 8.00014 16.5 16.0001V27.9998M13.5 27.9998V31.0001L16.5 31.0002V27.9998M13.5 27.9998H16.5M13.5 27.9998V18.4998" stroke="black" stroke-linecap="round"/>
<path d="M12.5 35.4999C12.5 31.9998 13 31.4998 14.9998 31.4999L16.5 31.4998C20.5 35.9998 15 38.9998 10 37.9998C12 37.9998 12.5002 36.4998 12.5 35.4999Z" fill="#C43B55"/>
<path d="M14.9027 37.973C13.4879 38.5182 11.714 38.6638 10 38.2982C11.9612 38.2982 12.4517 36.7293 12.4515 35.6836C12.4515 32.0227 12.9418 31.4998 14.9027 31.4999L14.9905 31.4999C16.1777 31.4998 17.4245 31.983 17.8109 33.1056C18.3583 34.6955 17.6453 36.0281 16.5942 36.9711" stroke="black" stroke-linecap="round" stroke-linejoin="round"/>
<path d="M24 19.9998C25.1046 19.9998 26 19.1043 26 17.9998C26 16.8952 25.1046 15.9998 24 15.9998C22.8954 15.9998 22 16.8952 22 17.9998C22 18.507 22.1888 18.9701 22.5 19.3227" stroke="black" stroke-linecap="round"/>
<path d="M29.068 20.5174C29.3539 21.5844 30.4506 22.2175 31.5175 21.9316C32.0945 21.777 32.5446 21.3853 32.7911 20.8894L32.9317 19.4821C32.6458 18.4152 31.5491 17.782 30.4822 18.0679C29.4153 18.3538 28.7821 19.4505 29.068 20.5174Z" fill="#C43B55"/>
<path d="M31.5155 24.6809C30.5388 25.1969 30.1654 26.4069 30.6813 27.3836C30.9604 27.9117 31.4424 28.2635 31.9807 28.3936L33.384 28.2177C34.3606 27.7017 34.7341 26.4917 34.2181 25.5151C33.7021 24.5384 32.4921 24.165 31.5155 24.6809Z" fill="#C43B55"/>
<path d="M31 17.9998C29.8954 17.9998 29 18.8952 29 19.9998C29 21.1043 29.8954 21.9998 31 21.9998C32.1046 21.9998 33 21.1043 33 19.9998C33 19.4024 32.7381 18.8662 32.3229 18.4998" stroke="black" stroke-linecap="round"/>
<path d="M34.5 26.4998C34.5 25.3952 33.6046 24.4998 32.5 24.4998C31.3954 24.4998 30.5 25.3952 30.5 26.4998C30.5 27.6043 31.3954 28.4998 32.5 28.4998C33.0072 28.4998 33.4703 28.3109 33.8229 27.9998" stroke="black" stroke-linecap="round"/>
<path d="M27.5 33.4998C26.3954 33.4998 25.5 32.6043 25.5 31.4998C25.5 30.3952 26.3954 29.4998 27.5 29.4998C28.6046 29.4998 29.5 30.3952 29.5 31.4998C29.5 31.864 29.4026 32.2056 29.2324 32.4998" stroke="black" stroke-linecap="round"/>
<path d="M19 24.4998C17.8954 24.4998 17 23.6043 17 22.4998C17 21.3952 17.8954 20.4998 19 20.4998C20.1046 20.4998 21 21.3952 21 22.4998C21 22.9013 20.8817 23.2752 20.6779 23.5885" stroke="black" stroke-linecap="round"/>
</svg>

<svg width="48" height="48" fill="none" xmlns="http://www.w3.org/2000/svg"><path d="M29.031 30.283a2 2 0 00-3.522 1.263l.477 1.331a2 2 0 003.045-2.594zm-3.408-11.018a2 2 0 00-2.03-3.142l-1.189.767a2 2 0 103.219 2.375zm-5.018 4.52a2 2 0 00-2.03-3.142l-1.188.767a2 2 0 003.218 2.375z" fill="#C43B55"/><path d="M38 24.5C38 31.127 32.627 37 26 37c-1.167 0-3-.5-3.5-1-.765-.766 2.178-6.05-5.5-8-1-.334-3-1.5-3-3.5 0-6.628 5.373-12 12-12 4.337 0 8.138 2.301 10.246 5.75" stroke="#000" stroke-linecap="round" stroke-linejoin="round"/><path d="M16.5 16c0-8-3-8-3 0v12h3V16z" fill="#C43B55"/><path d="M13.5 16c0-8 3-8 3 0v12m-3 0v3h3v-3m-3 0h3m-3 0v-9.5" stroke="#000" stroke-linecap="round"/><path d="M12.5 35.5c0-3.5.5-4 2.5-4h1.5C20.5 36 15 39 10 38c2 0 2.5-1.5 2.5-2.5z" fill="#C43B55"/><path d="M14.903 37.973c-1.415.545-3.189.69-4.903.325 1.961 0 2.452-1.569 2.451-2.614 0-3.661.49-4.184 2.452-4.184h.088c1.187 0 2.433.483 2.82 1.606.547 1.59-.166 2.922-1.217 3.865" stroke="#000" stroke-linecap="round" stroke-linejoin="round"/><path d="M24 20a2 2 0 10-1.5-.677" stroke="#000" stroke-linecap="round"/><path d="M29.068 20.517a2 2 0 003.723.372l.14-1.407a2 2 0 00-3.863 1.035zm2.447 4.163a2 2 0 00.466 3.714l1.403-.176a2 2 0 00-1.869-3.537z" fill="#C43B55"/><path d="M31 18a2 2 0 101.323.5m2.177 8a2 2 0 10-.677 1.5M27.5 33.5a2 2 0 111.732-1M19 24.5a2 2 0 111.678-.912" stroke="#000" stroke-linecap="round"/></svg>
